svgs/regular/hospitals.svg

<svg xmlns="http://www.w3.org/2000/svg" viewBox="0 0 576 512"><!--! Font Awesome Pro 6.6.0 by @fontawesome - https://fontawesome.com License - https://fontawesome.com/license (Commercial License) Copyright 2024 Fonticons, Inc. --><path d="M320 48l192 0c8.8 0 16 7.2 16 16l0 192-208 0 0 48 208 0 0 48-208 0 0 48 208 0 0 48c0 8.8-7.2 16-16 16l-192 0c0 17.3-5.5 33.2-14.7 46.3c4.7 1.1 9.7 1.7 14.7 1.7l192 0c35.3 0 64-28.7 64-64l0-384c0-35.3-28.7-64-64-64L320 0c-35.3 0-64 28.7-64 64l0 1.6c19.5 4 36.5 15 48 30.4l0-32c0-8.8 7.2-16 16-16zm88 48l0 24-24 0c-8.8 0-16 7.2-16 16l0 16c0 8.8 7.2 16 16 16l24 0 0 24c0 8.8 7.2 16 16 16l16 0c8.8 0 16-7.2 16-16l0-24 24 0c8.8 0 16-7.2 16-16l0-16c0-8.8-7.2-16-16-16l-24 0 0-24c0-8.8-7.2-16-16-16l-16 0c-8.8 0-16 7.2-16 16zM136 176c-8.8 0-16 7.2-16 16l0 24-24 0c-8.8 0-16 7.2-16 16l0 16c0 8.8 7.2 16 16 16l24 0 0 24c0 8.8 7.2 16 16 16l16 0c8.8 0 16-7.2 16-16l0-24 24 0c8.8 0 16-7.2 16-16l0-16c0-8.8-7.2-16-16-16l-24 0 0-24c0-8.8-7.2-16-16-16l-16 0zM64 144l160 0c8.8 0 16 7.2 16 16l0 192L48 352l0-192c0-8.8 7.2-16 16-16zM48 400l192 0 0 48c0 8.8-7.2 16-16 16L64 464c-8.8 0-16-7.2-16-16l0-48zM0 160L0 448c0 35.3 28.7 64 64 64l160 0c35.3 0 64-28.7 64-64l0-288c0-35.3-28.7-64-64-64L64 96C28.7 96 0 124.7 0 160z"/></svg>

<svg xmlns="http://www.w3.org/2000/svg" viewBox="0 0 576 512"><!--! Font Awesome Pro 6.4.0 by @fontawesome - https://fontawesome.com License - https://fontawesome.com/license (Commercial License) Copyright 2023 Fonticons, Inc. --><path d="M320 48H512c8.8 0 16 7.2 16 16V256H320v48H528v48H320v48H528v48c0 8.8-7.2 16-16 16H320c0 17.3-5.5 33.2-14.7 46.3c4.7 1.1 9.7 1.7 14.7 1.7H512c35.3 0 64-28.7 64-64V64c0-35.3-28.7-64-64-64H320c-35.3 0-64 28.7-64 64v1.6c19.5 4 36.5 15 48 30.4V64c0-8.8 7.2-16 16-16zm88 48v24H384c-8.8 0-16 7.2-16 16v16c0 8.8 7.2 16 16 16h24v24c0 8.8 7.2 16 16 16h16c8.8 0 16-7.2 16-16V168h24c8.8 0 16-7.2 16-16V136c0-8.8-7.2-16-16-16H456V96c0-8.8-7.2-16-16-16H424c-8.8 0-16 7.2-16 16zM136 176c-8.8 0-16 7.2-16 16v24H96c-8.8 0-16 7.2-16 16v16c0 8.8 7.2 16 16 16h24v24c0 8.8 7.2 16 16 16h16c8.8 0 16-7.2 16-16V264h24c8.8 0 16-7.2 16-16V232c0-8.8-7.2-16-16-16H168V192c0-8.8-7.2-16-16-16H136zM64 144H224c8.8 0 16 7.2 16 16V352H48V160c0-8.8 7.2-16 16-16zM48 400H240v48c0 8.8-7.2 16-16 16H64c-8.8 0-16-7.2-16-16V400zM0 160V448c0 35.3 28.7 64 64 64H224c35.3 0 64-28.7 64-64V160c0-35.3-28.7-64-64-64H64C28.7 96 0 124.7 0 160z"/></svg>
